dashboard/src/img/icons.svg

<svg class="feather feather-sun" width="30" height="240" version="1.1" viewBox="0 0 30 240" xmlns="http://www.w3.org/2000/svg">
 <g transform="matrix(1.2727 0 0 1.2727 -.27273 -.27273)" fill="none" stroke="currentColor" stroke-linecap="round" stroke-linejoin="round" stroke-width="1.5714">
  <circle cx="12" cy="12" r="5"/>
  <line x1="12" x2="12" y1="1" y2="3"/>
  <line x1="12" x2="12" y1="21" y2="23"/>
  <line x1="4.22" x2="5.64" y1="4.22" y2="5.64"/>
  <line x1="18.36" x2="19.78" y1="18.36" y2="19.78"/>
  <line x1="1" x2="3" y1="12" y2="12"/>
  <line x1="21" x2="23" y1="12" y2="12"/>
  <line x1="4.22" x2="5.64" y1="19.78" y2="18.36"/>
  <line x1="18.36" x2="19.78" y1="5.64" y2="4.22"/>
 </g>
 <g transform="matrix(1.2727 0 0 1.2727 -.30743 29.762)" fill="none" stroke="currentColor" stroke-linecap="round" stroke-linejoin="round" stroke-width="1.5714">
  <path d="m21 12.79a9 9 0 1 1-9.79-9.79 7 7 0 0 0 9.79 9.79z" stroke-width="1.5714"/>
 </g>
 <g transform="matrix(1.2727 0 0 1.2727 .045454 60.381)" fill="none" stroke="currentColor" stroke-linecap="round" stroke-linejoin="round" stroke-width="1.5714">
  <path d="m9 19c-5 1.5-5-2.5-7-3m14 6v-3.87a3.37 3.37 0 0 0-0.94-2.61c3.14-0.35 6.44-1.54 6.44-7a5.44 5.44 0 0 0-1.5-3.75 5.07 5.07 0 0 0-0.09-3.77s-1.18-0.35-3.91 1.48a13.38 13.38 0 0 0-7 0c-2.73-1.83-3.91-1.48-3.91-1.48a5.07 5.07 0 0 0-0.09 3.77 5.44 5.44 0 0 0-1.5 3.78c0 5.42 3.3 6.61 6.44 7a3.37 3.37 0 0 0-0.94 2.58v3.87" stroke-width="1.5714"/>
 </g>
 <g transform="matrix(1.25 0 0 1.25 1.2e-6 90)" fill="none" stroke="currentColor" stroke-linecap="round" stroke-linejoin="round" stroke-width="1.6">
  <circle cx="12" cy="12" r="3"/>
  <path d="m19.4 15a1.65 1.65 0 0 0 0.33 1.82l0.06 0.06a2 2 0 0 1 0 2.83 2 2 0 0 1-2.83 0l-0.06-0.06a1.65 1.65 0 0 0-1.82-0.33 1.65 1.65 0 0 0-1 1.51v0.17a2 2 0 0 1-2 2 2 2 0 0 1-2-2v-0.09a1.65 1.65 0 0 0-1.08-1.51 1.65 1.65 0 0 0-1.82 0.33l-0.06 0.06a2 2 0 0 1-2.83 0 2 2 0 0 1 0-2.83l0.06-0.06a1.65 1.65 0 0 0 0.33-1.82 1.65 1.65 0 0 0-1.51-1h-0.17a2 2 0 0 1-2-2 2 2 0 0 1 2-2h0.09a1.65 1.65 0 0 0 1.51-1.08 1.65 1.65 0 0 0-0.33-1.82l-0.06-0.06a2 2 0 0 1 0-2.83 2 2 0 0 1 2.83 0l0.06 0.06a1.65 1.65 0 0 0 1.82 0.33h0.08a1.65 1.65 0 0 0 1-1.51v-0.17a2 2 0 0 1 2-2 2 2 0 0 1 2 2v0.09a1.65 1.65 0 0 0 1 1.51 1.65 1.65 0 0 0 1.82-0.33l0.06-0.06a2 2 0 0 1 2.83 0 2 2 0 0 1 0 2.83l-0.06 0.06a1.65 1.65 0 0 0-0.33 1.82v0.08a1.65 1.65 0 0 0 1.51 1h0.17a2 2 0 0 1 2 2 2 2 0 0 1-2 2h-0.09a1.65 1.65 0 0 0-1.51 1z"/>
 </g>
 <g transform="matrix(1.25 0 0 1.25 -.61084 120.61)" fill="none" stroke="currentColor" stroke-linecap="round" stroke-linejoin="round" stroke-width="1.6">
  <path d="m14.7 6.3a1 1 0 0 0 0 1.4l1.6 1.6a1 1 0 0 0 1.4 0l3.77-3.77a6 6 0 0 1-7.94 7.94l-6.91 6.91a2.1213 2.1213 0 0 1-3-3l6.91-6.91a6 6 0 0 1 7.94-7.94l-3.76 3.76z" stroke-width="1.6"/>
 </g>
 <g transform="matrix(1.25 0 0 1.25 -3.9204e-7 150)" fill="none" stroke="currentColor" stroke-linecap="round" stroke-linejoin="round" stroke-width="1.6">
  <rect x="2" y="2" width="20" height="8" rx="1.6" ry="1.6"/>
  <rect x="2" y="14" width="20" height="8" rx="1.6" ry="1.6"/>
  <line x1="6" x2="6.01" y1="6" y2="6"/>
  <line x1="6" x2="6.01" y1="18" y2="18"/>
 </g>
 <g transform="matrix(1.25 0 0 1.25 -.625 180)" fill="none" stroke="currentColor" stroke-linecap="round" stroke-linejoin="round" stroke-width="1.6">
  <polyline points="9 11 12 14 22 4"/>
  <path d="m21 12v7a2 2 0 0 1-2 2h-14a2 2 0 0 1-2-2v-14a2 2 0 0 1 2-2h11"/>
 </g>
 <g transform="matrix(1.25 0 0 1.25 -3.2275e-7 210.05)" fill="none" stroke="currentColor" stroke-linecap="round" stroke-linejoin="round" stroke-width="1.6">
  <path d="m10.29 3.86-8.47 14.14a2 2 0 0 0 1.71 3h16.94a2 2 0 0 0 1.71-3l-8.47-14.14a2 2 0 0 0-3.42 0z"/>
  <line x1="12" x2="12" y1="9" y2="13"/>
  <line x1="12" x2="12.01" y1="17" y2="17"/>
 </g>
</svg>

<?xml version="1.0" encoding="UTF-8" standalone="no"?>
<svg
   width="30"
   height="120"
   viewBox="0 0 30 120"
   fill="none"
   stroke="currentColor"
   stroke-width="2"
   stroke-linecap="round"
   stroke-linejoin="round"
   class="feather feather-sun"
   version="1.1"
   id="svg8"
   sodipodi:docname="icons.svg"
   xml:space="preserve"
   inkscape:version="1.3.2 (091e20e, 2023-11-25, custom)"
   xmlns:inkscape="http://www.inkscape.org/namespaces/inkscape"
   xmlns:sodipodi="http://sodipodi.sourceforge.net/DTD/sodipodi-0.dtd"
   xmlns="http://www.w3.org/2000/svg"
   xmlns:svg="http://www.w3.org/2000/svg"><defs
     id="defs8" /><sodipodi:namedview
     id="namedview8"
     pagecolor="#ffffff"
     bordercolor="#000000"
     borderopacity="0.25"
     inkscape:showpageshadow="2"
     inkscape:pageopacity="0.0"
     inkscape:pagecheckerboard="0"
     inkscape:deskcolor="#d1d1d1"
     showgrid="true"
     showguides="true"
     inkscape:zoom="2.1599903"
     inkscape:cx="26.157525"
     inkscape:cy="113.65792"
     inkscape:window-width="1350"
     inkscape:window-height="1237"
     inkscape:window-x="613"
     inkscape:window-y="116"
     inkscape:window-maximized="0"
     inkscape:current-layer="svg8" /><g
     style="fill:none;stroke:currentColor;stroke-width:1.57143;stroke-linecap:round;stroke-linejoin:round"
     id="g8"
     transform="matrix(1.2727273,0,0,1.2727273,-0.2727276,-0.2727276)"><circle
       cx="12"
       cy="12"
       r="5"
       id="circle1"
       style="stroke-width:1.57143" /><line
       x1="12"
       y1="1"
       x2="12"
       y2="3"
       id="line1"
       style="stroke-width:1.57143" /><line
       x1="12"
       y1="21"
       x2="12"
       y2="23"
       id="line2"
       style="stroke-width:1.57143" /><line
       x1="4.2199998"
       y1="4.2199998"
       x2="5.6399999"
       y2="5.6399999"
       id="line3"
       style="stroke-width:1.57143" /><line
       x1="18.360001"
       y1="18.360001"
       x2="19.780001"
       y2="19.780001"
       id="line4"
       style="stroke-width:1.57143" /><line
       x1="1"
       y1="12"
       x2="3"
       y2="12"
       id="line5"
       style="stroke-width:1.57143" /><line
       x1="21"
       y1="12"
       x2="23"
       y2="12"
       id="line6"
       style="stroke-width:1.57143" /><line
       x1="4.2199998"
       y1="19.780001"
       x2="5.6399999"
       y2="18.360001"
       id="line7"
       style="stroke-width:1.57143" /><line
       x1="18.360001"
       y1="5.6399999"
       x2="19.780001"
       y2="4.2199998"
       id="line8"
       style="stroke-width:1.57143" /></g><g
     style="fill:none;stroke:currentColor;stroke-width:1.57143;stroke-linecap:round;stroke-linejoin:round"
     id="g9"
     transform="matrix(1.2727273,0,0,1.2727273,-0.30742508,29.76197)"><path
       d="M 21,12.79 A 9,9 0 1 1 11.21,3 7,7 0 0 0 21,12.79 Z"
       id="path1"
       style="stroke-width:1.57143" /></g><g
     style="fill:none;stroke:currentColor;stroke-width:1.57143;stroke-linecap:round;stroke-linejoin:round"
     id="g10"
     transform="matrix(1.2727273,0,0,1.2727273,0.04545422,60.380682)"><path
       d="M 9,19 C 4,20.5 4,16.5 2,16 m 14,6 v -3.87 a 3.37,3.37 0 0 0 -0.94,-2.61 c 3.14,-0.35 6.44,-1.54 6.44,-7 A 5.44,5.44 0 0 0 20,4.77 5.07,5.07 0 0 0 19.91,1 c 0,0 -1.18,-0.35 -3.91,1.48 a 13.38,13.38 0 0 0 -7,0 C 6.27,0.65 5.09,1 5.09,1 A 5.07,5.07 0 0 0 5,4.77 5.44,5.44 0 0 0 3.5,8.55 c 0,5.42 3.3,6.61 6.44,7 A 3.37,3.37 0 0 0 9,18.13 V 22"
       id="path1-9"
       style="stroke-width:1.57143" /></g><g
     style="fill:none;stroke:currentColor;stroke-width:1.6;stroke-linecap:round;stroke-linejoin:round"
     id="g4"
     transform="matrix(1.2499999,0,0,1.2499999,1.2e-6,90.000001)"><circle
       cx="12"
       cy="12"
       r="3"
       id="circle1-8"
       style="stroke-width:1.6" /><path
       d="m 19.4,15 a 1.65,1.65 0 0 0 0.33,1.82 l 0.06,0.06 a 2,2 0 0 1 0,2.83 2,2 0 0 1 -2.83,0 L 16.9,19.65 a 1.65,1.65 0 0 0 -1.82,-0.33 1.65,1.65 0 0 0 -1,1.51 V 21 a 2,2 0 0 1 -2,2 2,2 0 0 1 -2,-2 V 20.91 A 1.65,1.65 0 0 0 9,19.4 1.65,1.65 0 0 0 7.18,19.73 l -0.06,0.06 a 2,2 0 0 1 -2.83,0 2,2 0 0 1 0,-2.83 L 4.35,16.9 a 1.65,1.65 0 0 0 0.33,-1.82 1.65,1.65 0 0 0 -1.51,-1 H 3 a 2,2 0 0 1 -2,-2 2,2 0 0 1 2,-2 H 3.09 A 1.65,1.65 0 0 0 4.6,9 1.65,1.65 0 0 0 4.27,7.18 L 4.21,7.12 a 2,2 0 0 1 0,-2.83 2,2 0 0 1 2.83,0 L 7.1,4.35 A 1.65,1.65 0 0 0 8.92,4.68 H 9 A 1.65,1.65 0 0 0 10,3.17 V 3 a 2,2 0 0 1 2,-2 2,2 0 0 1 2,2 v 0.09 a 1.65,1.65 0 0 0 1,1.51 1.65,1.65 0 0 0 1.82,-0.33 l 0.06,-0.06 a 2,2 0 0 1 2.83,0 2,2 0 0 1 0,2.83 L 19.65,7.1 A 1.65,1.65 0 0 0 19.32,8.92 V 9 a 1.65,1.65 0 0 0 1.51,1 H 21 a 2,2 0 0 1 2,2 2,2 0 0 1 -2,2 h -0.09 a 1.65,1.65 0 0 0 -1.51,1 z"
       id="path1-8"
       style="stroke-width:1.6" /></g></svg>
